X: 19471
T: Jackson's Morning Breeze
R: jig
M: 6/8
K: Dmajor
|:"G"DFA def|edB gab|"D/F#"afd def|"A"edB "Bm"AFE|
"G"DFA def|edB gab|"D/F#"afd def|"A"edc2<d2:|
|:"D"f2 f a2 a|bab a2 g|"A/C#"f2 f a2 a|bab a2 f|
"Bm7"g2 g f2 f|edB g3|"G"afd def|1 edc "A"deg:|2 edc "A"dAF||

